X:1
T: Sir John Shaw Stewart
C:
R:Strathspey
Q: 128
K:Gm
M:4/4
L:1/16
|:G2|D3G G3c Bcd2 c3B|A3F c3F d3F c3F|D3G G3c d3=e f3d|cA3 f3A G4 G2G2|
D3G G3c Bcd2 c3B|A3F c3F d3F c3F|D3G G3c d3=e f3d|cA3 f3A G4 G2A2|
G3g g3a b4 a3g|f3c a3c f3c a3f|d3g g3a b4 a3g|f3d c3A G4 G3A|
G3g g3a b4 a3g|f3c f3g a3g f3a|g3a f3g d3f c3f|A3F c3A G4 G2:|
